X: 10033
Q: "Quick."
M: 2/4
L: 1/8
K: F
c |\
!p!fagf | egcc | BdcB | AcFc |\
"^cres.".d.B.e.c | .f.d.g.e | afdg | dgc ::\
fagf | egcA | Bdce | f>fF :|


